logo.svg

<svg viewBox="0 0 111 30" data-uia="netflix-logo" class="svg-icon svg-icon-netflix-logo" aria-hidden="true" focusable="false"><g id="netflix-logo"><path d="M105.06233,14.2806261 L110.999156,30 C109.249227,29.7497422 107.500234,29.4366857 105.718437,29.1554972 L102.374168,20.4686475 L98.9371075,28.4375293 C97.2499766,28.1563408 95.5928391,28.061674 93.9057081,27.8432843 L99.9372012,14.0931671 L94.4680851,-5.68434189e-14 L99.5313525,-5.68434189e-14 L102.593495,7.87421502 L105.874965,-5.68434189e-14 L110.999156,-5.68434189e-14 L105.06233,14.2806261 Z M90.4686475,-5.68434189e-14 L85.8749649,-5.68434189e-14 L85.8749649,27.2499766 C87.3746368,27.3437061 88.9371075,27.4055675 90.4686475,27.5930265 L90.4686475,-5.68434189e-14 Z M81.9055207,26.93692 C77.7186241,26.6557316 73.5307901,26.4064111 69.250164,26.3117443 L69.250164,-5.68434189e-14 L73.9366389,-5.68434189e-14 L73.9366389,21.8745899 C76.6248008,21.9373887 79.3120255,22.1557784 81.9055207,22.2804387 L81.9055207,26.93692 Z M64.2496954,10.6561065 L64.2496954,15.3435186 L57.8442216,15.3435186 L57.8442216,25.9996251 L53.2186709,25.9996251 L53.2186709,-5.68434189e-14 L66.3436123,-5.68434189e-14 L66.3436123,4.68741213 L57.8442216,4.68741213 L57.8442216,10.6561065 L64.2496954,10.6561065 Z M45.3435186,4.68741213 L45.3435186,26.2498828 C43.7810479,26.2498828 42.1876465,26.2498828 40.6561065,26.3117443 L40.6561065,4.68741213 L35.8121661,4.68741213 L35.8121661,-5.68434189e-14 L50.2183897,-5.68434189e-14 L50.2183897,4.68741213 L45.3435186,4.68741213 Z M30.749836,15.5928391 C28.687787,15.5928391 26.2498828,15.5928391 24.4999531,15.6875059 L24.4999531,22.6562939 C27.2499766,22.4678976 30,22.2495079 32.7809542,22.1557784 L32.7809542,26.6557316 L19.812541,27.6876933 L19.812541,-5.68434189e-14 L32.7809542,-5.68434189e-14 L32.7809542,4.68741213 L24.4999531,4.68741213 L24.4999531,10.9991564 C26.3126816,10.9991564 29.0936358,10.9054269 30.749836,10.9054269 L30.749836,15.5928391 Z M4.78114163,12.9684132 L4.78114163,29.3429562 C3.09401069,29.5313525 1.59340144,29.7497422 0,30 L0,-5.68434189e-14 L4.4690224,-5.68434189e-14 L10.562377,17.0315868 L10.562377,-5.68434189e-14 L15.2497891,-5.68434189e-14 L15.2497891,28.061674 C13.5935889,28.3437998 11.906458,28.4375293 10.1246602,28.6868498 L4.78114163,12.9684132 Z" id="Fill-14"></path></g></svg>

<?xml version="1.0" encoding="utf-8"?>
<!-- Generator: Adobe Illustrator 27.2.0, SVG Export Plug-In . SVG Version: 6.00 Build 0)  -->
<svg version="1.1" id="Layer_1" focusable="false" xmlns="http://www.w3.org/2000/svg" xmlns:xlink="http://www.w3.org/1999/xlink"
	 x="0px" y="0px" viewBox="0 0 111 30" style="enable-background:new 0 0 111 30;" xml:space="preserve">
<style type="text/css">
	.st0{fill:#E50914;}
</style>
<g id="netflix-logo">
	<path id="Fill-14" class="st0" d="M105.1,14.3L111,30c-1.7-0.3-3.5-0.6-5.3-0.8l-3.3-8.7l-3.4,8c-1.7-0.3-3.3-0.4-5-0.6l6-13.8
		L94.5,0h5.1l3.1,7.9l3.3-7.9h5.1L105.1,14.3z M90.5,0h-4.6v27.2c1.5,0.1,3.1,0.2,4.6,0.3V0z M81.9,26.9c-4.2-0.3-8.4-0.5-12.7-0.6
		V0h4.7v21.9c2.7,0.1,5.4,0.3,8,0.4V26.9z M64.2,10.7v4.7h-6.4V26h-4.6V0h13.1v4.7h-8.5v6H64.2z M45.3,4.7v21.6
		c-1.6,0-3.2,0-4.7,0.1V4.7h-4.8V0h14.4v4.7H45.3z M30.7,15.6c-2.1,0-4.5,0-6.2,0.1v7c2.8-0.2,5.5-0.4,8.3-0.5v4.5l-13,1V0h13v4.7
		h-8.3V11c1.8,0,4.6-0.1,6.2-0.1V15.6z M4.8,13v16.4C3.1,29.5,1.6,29.7,0,30V0h4.5l6.1,17V0h4.7v28.1c-1.7,0.3-3.3,0.4-5.1,0.6
		L4.8,13z"/>
</g>
</svg>
